src/assets/icons/views.svg

<?xml version="1.0" encoding="UTF-8"?>
<svg width="17px" height="14px" viewBox="0 0 17 14" version="1.1" xmlns="http://www.w3.org/2000/svg" xmlns:xlink="http://www.w3.org/1999/xlink">
    <!-- Generator: Sketch 41 (35326) - http://www.bohemiancoding.com/sketch -->
    <title>Views</title>
    <desc>Created with Sketch.</desc>
    <defs></defs>
    <g id="Styleguide" stroke="none" stroke-width="1" fill="none" fill-rule="evenodd">
        <g id="ICONS" transform="translate(-81.000000, -451.000000)">
            <g id="Views" transform="translate(81.000000, 451.000000)">
                <g id="Group-11">
                    <g id="Group-10" transform="translate(0.483363, 0.197106)">
                        <path d="M4.37159817,4.9873606 C4.13689967,5.49099063 4.00524357,6.05724914 4.00524357,6.65560256 C4.00524357,8.75669224 5.628947,10.4599784 7.63207139,10.4599784 C9.63519579,10.4599784 11.2588992,8.75669224 11.2588992,6.65560256 C11.2588992,6.05707565 11.1272431,5.49064366 10.8923792,4.98684014" id="Stroke-1" stroke="#B0BEC5"></path>
                        <path d="M6.6165993,6.84707912 C6.6165993,6.25184845 7.07673406,5.76921023 7.64421154,5.76921023 C8.21168903,5.76921023 8.67182378,6.25184845 8.67182378,6.84707912 C8.67182378,7.4423098 8.21168903,7.92494802 7.64421154,7.92494802 C7.07673406,7.92494802 6.6165993,7.4423098 6.6165993,6.84707912" id="Fill-3" fill="#B0BEC5"></path>
                        <path d="M15.3379042,6.81040417 C15.3379042,10.2768892 11.9125894,13.0872118 7.68734711,13.0872118 C3.46210477,13.0872118 0.0367899847,10.2768892 0.0367899847,6.81040417 C0.0367899847,3.3439191 3.46210477,0.533596574 7.68734711,0.533596574 C11.9125894,0.533596574 15.3379042,3.3439191 15.3379042,6.81040417 L15.3379042,6.81040417 Z" id="Stroke-7" stroke="#B0BEC5" stroke-linejoin="round"></path>
                        <path d="M2.66814025,5.69341417 C1.70668686,6.18143046 0.878212732,6.79470368 0.23283321,7.47494252" id="Stroke-9" stroke="#B0BEC5"></path>
                        <path d="M12.5683316,5.74840925 C11.1445933,5.00207222 9.41668967,4.53869095 7.55398742,4.53869095 C5.74702399,4.53869095 4.06692015,4.98350921 2.66815679,5.69341417" id="Stroke-11" stroke="#B0BEC5"></path>
                        <path d="M15.2443576,7.89961905 C14.5854155,7.06931477 13.6674615,6.32453911 12.5683978,5.7483919" id="Stroke-13" stroke="#B0BEC5"></path>
                    </g>
                </g>
            </g>
        </g>
    </g>
</svg>

<svg width="17" height="14" viewBox="0 0 17 14" xmlns="http://www.w3.org/2000/svg"><g id="Styleguide" fill="none" fill-rule="evenodd"><g id="ICONS" transform="translate(-81 -451)"><g id="Views" transform="translate(81 451)"><g id="Group-11"><g id="Group-10" transform="translate(.483 .197)"><path d="M4.372 4.987a3.942 3.942 0 0 0-.367 1.669c0 2.1 1.624 3.804 3.627 3.804 2.003 0 3.627-1.703 3.627-3.804 0-.599-.132-1.165-.367-1.67" id="Stroke-1" stroke="#B0BEC5"/><path d="M6.617 6.847c0-.595.46-1.078 1.027-1.078.568 0 1.028.483 1.028 1.078 0 .595-.46 1.078-1.028 1.078-.567 0-1.027-.483-1.027-1.078" id="Fill-3" fill="#B0BEC5"/><path d="M15.338 6.81c0 3.467-3.425 6.277-7.65 6.277-4.226 0-7.651-2.81-7.651-6.277 0-3.466 3.425-6.276 7.65-6.276 4.226 0 7.65 2.81 7.65 6.276z" id="Stroke-7" stroke="#B0BEC5" stroke-linejoin="round"/><path d="M2.668 5.693C1.707 6.181.878 6.795.233 7.475" id="Stroke-9" stroke="#B0BEC5"/><path d="M12.568 5.748a10.847 10.847 0 0 0-5.014-1.21 10.84 10.84 0 0 0-4.886 1.155" id="Stroke-11" stroke="#B0BEC5"/><path d="M15.244 7.9c-.659-.83-1.577-1.575-2.676-2.152" id="Stroke-13" stroke="#B0BEC5"/></g></g></g></g></g></svg>
